X: 10
T: Pollonesse #10
M: 3/4
L: 1/16
K: D
Q:120
N: Noterna är svåra att tyda, speciellt slutet av andra reprisen där det nu saknas ett taktslag...
fgfd egec dfdA|B2Bd cdec d2f2|ABcd efge gfed|c2cd edcB A2g2|
fgfd egec dfdA| fafd egec dfdA|c2cd cdec d2f2|ABcd efge gfed|
B2Bd cdec d2f2|ABcd efge gfed| cdec d4D4:|
a2F2 F2a2 bagf|g2E2 E2g2 agfe|f2D2 D2f2 gfed| c2cd edcA| cdec d4 D4:|
